original/processed/trello.svg

<?xml version="1.0" encoding="UTF-8" standalone="no"?>
<svg
   xmlns:dc="http://purl.org/dc/elements/1.1/"
   xmlns:cc="http://creativecommons.org/ns#"
   xmlns:rdf="http://www.w3.org/1999/02/22-rdf-syntax-ns#"
   xmlns:svg="http://www.w3.org/2000/svg"
   xmlns="http://www.w3.org/2000/svg"
   style="display: block;"
   height="400"
   width="400"
   version="1.1"
   id="svg">
  <metadata
     id="metadata9">
    <rdf:RDF>
      <cc:Work
         rdf:about="">
        <dc:format>image/svg+xml</dc:format>
        <dc:type
           rdf:resource="http://purl.org/dc/dcmitype/StillImage" />
        <dc:title></dc:title>
      </cc:Work>
    </rdf:RDF>
  </metadata>
  <defs
     id="defs7" />
  <g
     transform="matrix(1.2937853,0,0,1.2937853,-58.757063,-57.062147)"
     id="svgg">
    <path
       style="fill:#000000;fill-rule:evenodd;stroke:none"
       d="M 70.5,52.499 C 62.573,55.738 55.116,63.378 52.162,71.288 L 50,77.075 V 200 322.925 l 2.138,5.787 c 2.929,7.928 11.222,16.221 19.15,19.15 L 77.075,350 H 200 322.925 l 5.787,-2.138 c 7.928,-2.929 16.221,-11.222 19.15,-19.15 L 350,322.925 V 200 77.075 l -2.138,-5.787 C 344.933,63.36 336.64,55.067 328.712,52.138 L 322.925,50 199.712,50.024 76.5,50.047 l -6,2.452 m 102.3,32.912 c 3.625,1.894 7.833,6.455 9.136,9.904 0.724,1.916 1.064,32.72 1.064,96.434 0,106.334 0.563,99.203 -8.298,105.067 l -4.056,2.684 h -37.073 c -41.446,0 -40.715,0.113 -46.271,-7.171 L 84.5,288.656 84.235,192.741 83.97,96.825 86.214,92.833 c 1.234,-2.196 4.054,-5.078 6.265,-6.403 l 4.021,-2.411 36.8,-0.01 c 29.747,-0.007 37.317,0.261 39.5,1.402 m 134.412,0.828 c 2.226,1.251 5.044,4.048 6.386,6.338 L 316,96.676 v 49.212 C 316,213.329 320.257,208 266.385,208 212.907,208 217,213.13 217,146.105 c 0,-67.473 -4.274,-62.096 49.364,-62.101 36.327,-0.004 36.922,0.029 40.848,2.235"
       id="path0" />
  </g>
</svg>

<svg id="svg" version="1.1" width="400" height="400" xmlns="http://www.w3.org/2000/svg" xmlns:xlink="http://www.w3.org/1999/xlink" style="display: block;"><g id="svgg"><path id="path0" d="M70.500 52.499 C 62.573 55.738,55.116 63.378,52.162 71.288 L 50.000 77.075 50.000 200.000 L 50.000 322.925 52.138 328.712 C 55.067 336.640,63.360 344.933,71.288 347.862 L 77.075 350.000 200.000 350.000 L 322.925 350.000 328.712 347.862 C 336.640 344.933,344.933 336.640,347.862 328.712 L 350.000 322.925 350.000 200.000 L 350.000 77.075 347.862 71.288 C 344.933 63.360,336.640 55.067,328.712 52.138 L 322.925 50.000 199.712 50.024 L 76.500 50.047 70.500 52.499 M172.800 85.411 C 176.425 87.305,180.633 91.866,181.936 95.315 C 182.660 97.231,183.000 128.035,183.000 191.749 C 183.000 298.083,183.563 290.952,174.702 296.816 L 170.646 299.500 133.573 299.500 C 92.127 299.500,92.858 299.613,87.302 292.329 L 84.500 288.656 84.235 192.741 L 83.970 96.825 86.214 92.833 C 87.448 90.637,90.268 87.755,92.479 86.430 L 96.500 84.019 133.300 84.009 C 163.047 84.002,170.617 84.270,172.800 85.411 M307.212 86.239 C 309.438 87.490,312.256 90.287,313.598 92.577 L 316.000 96.676 316.000 145.888 C 316.000 213.329,320.257 208.000,266.385 208.000 C 212.907 208.000,217.000 213.130,217.000 146.105 C 217.000 78.632,212.726 84.009,266.364 84.004 C 302.691 84.000,303.286 84.033,307.212 86.239 " stroke="none" fill="#000000" fill-rule="evenodd"></path></g></svg>
